src/assets/icons/sold.svg

<?xml version="1.0" encoding="UTF-8"?>
<svg width="22px" height="19px" viewBox="0 0 22 19" version="1.1" xmlns="http://www.w3.org/2000/svg" xmlns:xlink="http://www.w3.org/1999/xlink">
    <!-- Generator: sketchtool 41.2 (35397) - http://www.bohemiancoding.com/sketch -->
    <title>D5CB4912-D3F5-4D34-B3B8-62589E82742C</title>
    <desc>Created with sketchtool.</desc>
    <defs></defs>
    <g id="Styleguide" stroke="none" stroke-width="1" fill="none" fill-rule="evenodd">
        <g id="ICONS" transform="translate(-190.000000, -257.000000)" fill="#f75883">
            <path d="M209.930667,266.949874 L206.171587,263.923725 L203.946941,262.088026 C203.945816,262.086902 203.944692,262.085778 203.943568,262.084654 C203.077991,261.370833 202.189931,261.454019 201.481731,262.019454 C201.286133,262.174584 201.146741,262.331962 201.062432,262.451119 C199.857368,263.857401 198.560126,264.416092 197.416889,264.29019 C197.08752,264.254218 196.819978,264.151923 196.623255,264.033889 C197.464102,263.303207 198.063262,262.445498 198.436472,261.538328 C198.899612,260.409705 199.794417,259.511528 200.915171,259.049512 C201.951616,258.622344 203.198272,258.647074 204.466287,259.064125 C204.576451,259.10347 204.587693,259.106842 204.712471,259.151807 C205.424043,259.402487 205.868073,259.535134 206.355944,259.613823 C206.370558,259.616072 206.370558,259.616072 206.386295,259.61832 C208.840264,260.000523 210.566922,261.910414 210.566922,264.345272 C210.566922,265.42331 210.371324,266.215819 209.930667,266.949874 M209.821626,269.228479 L209.524857,269.576958 C209.28317,269.860238 208.804292,269.8771 208.454688,269.578082 L208.218622,269.313912 C208.151174,269.222858 208.074734,269.138548 207.990424,269.057611 L207.957824,269.020515 L207.955576,269.022763 C207.93759,269.005902 207.924101,268.985667 207.904991,268.969929 C207.37103,268.513534 206.651589,269.253209 207.122598,269.77368 L207.24288,269.906327 C207.520539,270.205345 207.56438,270.621272 207.341803,270.882069 L207.043909,271.230548 C206.802222,271.513828 206.323344,271.53069 205.973741,271.232796 L205.737674,270.967503 C205.670227,270.876448 205.593786,270.792139 205.509477,270.711202 L205.476877,270.674105 L205.475753,270.676354 C205.457767,270.659492 205.443153,270.639258 205.425167,270.62352 C204.890083,270.167124 204.171766,270.9068 204.641651,271.42727 L204.761932,271.561041 C205.039592,271.858935 205.083433,272.275986 204.860856,272.535659 L204.564086,272.884139 C204.321275,273.167418 203.842397,273.18428 203.492793,272.886387 C203.492793,272.886387 202.875648,272.446853 202.792462,272.365916 C202.792462,272.365916 202.725015,272.292848 202.707029,272.27711 C202.171945,271.820715 201.572785,272.56039 202.04267,273.081985 L202.223654,273.214632 C202.50019,273.513649 202.573258,273.929576 202.350681,274.18925 L202.068525,274.537729 C201.826838,274.821009 201.355829,274.837871 201.005101,274.539977 C200.866833,274.43993 200.870206,274.43993 200.582429,274.237587 C200.512734,274.188125 200.480134,274.164519 200.447534,274.142036 C200.894937,272.957207 200.606036,271.571159 199.602191,270.679726 L195.256317,266.81273 C194.413222,266.061814 193.195793,265.857223 192.126749,266.153992 C191.922158,265.567198 191.788387,264.956797 191.788387,264.345272 C191.788387,261.533832 194.068115,259.255227 196.879556,259.255227 C197.410144,259.255227 197.919373,259.362019 198.413989,259.519397 C197.998062,259.99153 197.64059,260.517621 197.396654,261.110036 C197.047051,261.959876 196.474871,262.766999 195.623907,263.417868 C195.087698,263.828174 195.291165,264.440823 195.785781,264.839888 C196.152246,265.133285 196.691827,265.342373 197.293235,265.407572 C198.820923,265.576191 200.476762,264.861247 201.948243,263.141333 C202.007822,263.060396 202.079766,262.979459 202.183186,262.897397 C202.506934,262.638848 202.812697,262.610745 203.227499,262.951355 C203.227499,262.951355 203.228624,262.952479 203.228624,262.953604 L205.461139,264.794923 L209.668745,268.181917 C210.004859,268.469693 210.064438,268.945199 209.821626,269.228479 M199.023266,274.378103 L199.001907,274.402834 C198.765841,274.667003 198.362279,274.693982 198.095861,274.461288 L191.501734,268.739484 C191.371336,268.625947 191.291523,268.465197 191.280281,268.293205 C191.26904,268.121214 191.327495,267.951471 191.442156,267.822196 L191.453397,267.808707 C192.185203,266.98697 193.671299,266.906033 194.509897,267.652453 L198.856895,271.519449 C199.692121,272.262496 199.766313,273.542877 199.023266,274.378103 M211.691049,264.345272 C211.691049,261.34273 209.548464,258.973071 206.559411,258.507683 C206.547046,258.505434 206.547046,258.505434 206.535804,258.50431 C206.132243,258.439111 205.738798,258.322202 205.087929,258.091756 C204.958655,258.045667 204.841745,258.045667 204.712471,257.999577 L204.580948,257.997329 L204.580948,257.995081 C203.456821,257.501589 201.676205,257.471238 200.368845,258.009695 C199.965284,258.176065 199.653901,258.398642 199.304297,258.649323 C198.526402,258.309836 197.714782,258.1311 196.850329,258.1311 C193.417246,258.1311 190.649646,260.913314 190.649646,264.345272 C190.649646,265.122044 190.808148,265.902188 191.079063,266.638491 C190.904823,266.764393 190.746321,266.909405 190.601309,267.072404 L190.591192,267.085893 C190.286553,267.428752 190.128052,267.893016 190.157279,268.365149 C190.18763,268.837283 190.406835,269.27794 190.764307,269.588199 L197.574267,275.311128 C198.270101,275.914784 199.069355,275.872067 200.113669,275.24368 C200.267674,275.356093 200.273295,275.371831 200.351983,275.426913 C201.115265,276.082279 202.291102,276.04181 202.950964,275.268411 L203.242113,274.919932 C203.436587,274.691734 203.550124,274.42644 203.607454,274.151029 C204.27631,274.319648 204.969896,274.140912 205.419546,273.613697 L205.716316,273.266342 C205.91079,273.038144 206.027699,272.77285 206.086154,272.497439 C206.755009,272.666058 207.448595,272.487322 207.89937,271.960106 L208.197263,271.611627 C208.390613,271.384554 208.507522,271.11926 208.565977,270.843849 C209.234832,271.012468 209.929543,270.833731 210.379193,270.306516 L210.677087,269.958037 C211.216668,269.326278 211.209923,268.426976 210.753527,267.742383 C211.404397,266.765517 211.691049,265.718955 211.691049,264.345272" id="Handshake-Icon"></path>
        </g>
    </g>
</svg>

<svg width="22" height="19" viewBox="0 0 22 19" xmlns="http://www.w3.org/2000/svg"><g id="Styleguide" fill="none" fill-rule="evenodd"><g id="ICONS" transform="translate(-190 -257)" fill="#f75883"><path d="M209.93 266.95l-3.758-3.026-2.225-1.836-.003-.003c-.866-.714-1.754-.631-2.462-.066a2.178 2.178 0 0 0-.42.432c-1.205 1.406-2.502 1.965-3.645 1.84a1.957 1.957 0 0 1-.794-.257 6.664 6.664 0 0 0 1.813-2.496 4.568 4.568 0 0 1 2.48-2.488c1.036-.428 2.282-.403 3.55.014l.246.088c.712.25 1.156.383 1.644.462l.03.004c2.454.383 4.18 2.292 4.18 4.727 0 1.078-.195 1.87-.635 2.605m-.11 2.278l-.296.349c-.242.283-.72.3-1.07.001l-.236-.264a2.035 2.035 0 0 0-.229-.256l-.032-.037-.002.002c-.018-.017-.032-.037-.051-.053-.534-.456-1.253.283-.782.804l.12.132c.278.3.321.715.099.976l-.298.349c-.242.283-.72.3-1.07.002l-.236-.265a2.035 2.035 0 0 0-.229-.257l-.032-.037-.001.002c-.018-.017-.033-.037-.05-.052-.536-.457-1.254.283-.784.803l.12.134c.278.298.321.715.099.975l-.297.348c-.243.283-.722.3-1.071.002 0 0-.617-.44-.7-.52 0 0-.068-.073-.086-.089-.535-.456-1.134.283-.664.805l.18.133c.277.299.35.715.128.974l-.282.349c-.242.283-.713.3-1.064.002-.138-.1-.135-.1-.423-.302l-.134-.096a3.139 3.139 0 0 0-.846-3.462l-4.346-3.867c-.843-.751-2.06-.956-3.13-.659-.204-.587-.338-1.197-.338-1.809a5.09 5.09 0 0 1 5.092-5.09c.53 0 1.04.107 1.534.264a5.706 5.706 0 0 0-1.017 1.591 5.53 5.53 0 0 1-1.773 2.308c-.536.41-.333 1.023.162 1.422.366.293.906.502 1.507.568 1.528.168 3.184-.547 4.655-2.267.06-.08.132-.162.235-.244.324-.258.63-.286 1.044.054 0 0 .002.001.002.003l2.232 1.84 4.208 3.388c.336.288.395.763.153 1.046m-10.799 5.15l-.021.025a.645.645 0 0 1-.906.058l-6.594-5.722a.648.648 0 0 1-.06-.917l.011-.013c.732-.822 2.218-.903 3.057-.157l4.347 3.867c.835.743.91 2.024.166 2.86m12.668-10.034c0-3.002-2.143-5.372-5.132-5.837l-.023-.004c-.404-.065-.797-.182-1.448-.412-.13-.046-.246-.046-.376-.092l-.131-.003v-.002c-1.124-.493-2.905-.524-4.212.015-.404.166-.715.389-1.065.64a6.056 6.056 0 0 0-2.454-.519 6.202 6.202 0 0 0-6.2 6.214c0 .777.158 1.557.43 2.293-.175.126-.334.271-.479.434l-.01.014a1.767 1.767 0 0 0 .173 2.502l6.81 5.723c.696.604 1.495.561 2.54-.067.154.112.16.128.238.183.763.655 1.94.615 2.599-.159l.291-.348c.195-.228.308-.494.365-.769.67.169 1.363-.01 1.813-.537l.296-.348c.195-.228.312-.493.37-.769.669.17 1.363-.01 1.813-.537l.298-.348c.194-.227.31-.493.369-.768.669.168 1.364-.01 1.813-.537l.298-.349c.54-.632.533-1.531.077-2.216.65-.976.937-2.023.937-3.397" id="Handshake-Icon"/></g></g></svg>
